vendor/shopware/storefront/Resources/app/storefront/dist/assets/icon/default/bug.svg

<svg xmlns="http://www.w3.org/2000/svg" width="24" height="24" viewBox="0 0 24 24">
  <path fill="#758CA3" fill-rule="evenodd" d="M11,20.8938765 L11,14 C11,13.4477153 11.4477153,13 12,13 C12.5522847,13 13,13.4477153 13,14 L13,20.8938765 C15.7815808,20.2988698 18,17.268641 18,13.5 C18,9.28904233 15.2302801,6 12,6 C8.76971985,6 6,9.28904233 6,13.5 C6,17.268641 8.21841922,20.2988698 11,20.8938765 Z M4.84103343,9.255247 L3.29289322,7.70710678 C2.90236893,7.31658249 2.90236893,6.68341751 3.29289322,6.29289322 C3.68341751,5.90236893 4.31658249,5.90236893 4.70710678,6.29289322 L5.84510433,7.43089076 C6.45625498,6.55785652 7.19663018,5.81692625 8.0313737,5.24949174 C8.01089192,5.16973981 8,5.08614188 8,5 C8,2.790861 9.790861,1 12,1 C14.209139,1 16,2.790861 16,5 C16,5.08614188 15.9891081,5.16973981 15.9686263,5.24949174 C16.8033698,5.81692625 17.543745,6.55785652 18.1548957,7.43089076 L19.2928932,6.29289322 C19.6834175,5.90236893 20.3165825,5.90236893 20.7071068,6.29289322 C21.0976311,6.68341751 21.0976311,7.31658249 20.7071068,7.70710678 L19.1589666,9.255247 C19.6379998,10.392316 19.9305794,11.6594251 19.9891124,13.000058 C19.992737,13.0000194 19.9963662,13 20,13 L22,13 C22.5522847,13 23,13.4477153 23,14 C23,14.5522847 22.5522847,15 22,15 L20,15 C19.966756,15 19.933891,14.9983778 19.9014796,14.9952083 C19.7718603,15.9688253 19.5176938,16.8932515 19.1589666,17.744753 L20.7071068,19.2928932 C21.0976311,19.6834175 21.0976311,20.3165825 20.7071068,20.7071068 C20.3165825,21.0976311 19.6834175,21.0976311 19.2928932,20.7071068 L18.1548957,19.5691092 C16.6874496,21.6653693 14.4749752,23 12,23 C9.52502481,23 7.31255043,21.6653693 5.84510433,19.5691092 L4.70710678,20.7071068 C4.31658249,21.0976311 3.68341751,21.0976311 3.29289322,20.7071068 C2.90236893,20.3165825 2.90236893,19.6834175 3.29289322,19.2928932 L4.84103343,17.744753 C4.48230625,16.8932515 4.22813972,15.9688253 4.09852037,14.9952083 C4.06610902,14.9983778 4.03324395,15 4,15 L2,15 C1.44771525,15 1,14.5522847 1,14 C1,13.4477153 1.44771525,13 2,13 L4,13 C4.00363377,13 4.00726301,13.0000194 4.01088762,13.000058 C4.06942062,11.6594251 4.36200017,10.392316 4.84103343,9.255247 Z M13.857612,4.25743283 C13.5627789,3.52054035 12.8421788,3 12,3 C11.1578212,3 10.4372211,3.52054035 10.142388,4.25743283 C10.7385168,4.08910592 11.3604955,4 12,4 C12.6395045,4 13.2614832,4.08910592 13.857612,4.25743283 Z"/>
</svg>

<svg xmlns="http://www.w3.org/2000/svg" width="24" height="24" viewBox="0 0 24 24"><path fill="#758CA3" fill-rule="evenodd" d="M11 20.8939V14c0-.5523.4477-1 1-1s1 .4477 1 1v6.8939c2.7816-.595 5-3.6253 5-7.3939C18 9.289 15.2303 6 12 6s-6 3.289-6 7.5c0 3.7686 2.2184 6.7989 5 7.3939zM4.841 9.2552l-1.548-1.548c-.3905-.3906-.3905-1.0238 0-1.4143.3905-.3905 1.0237-.3905 1.4142 0l1.138 1.138c.6112-.873 1.3515-1.614 2.1863-2.1814A1.0018 1.0018 0 0 1 8 5c0-2.2091 1.7909-4 4-4 2.2091 0 4 1.7909 4 4 0 .0861-.0109.1697-.0314.2495.8348.5674 1.5751 1.3084 2.1863 2.1814l1.138-1.138c.3905-.3905 1.0237-.3905 1.4142 0 .3905.3905.3905 1.0237 0 1.4142L19.159 9.2552c.479 1.1371.7716 2.4042.8301 3.7449L20 13h2c.5523 0 1 .4477 1 1s-.4477 1-1 1h-2a1.012 1.012 0 0 1-.0985-.0048c-.1296.9736-.3838 1.898-.7425 2.7496l1.5481 1.548c.3905.3906.3905 1.0238 0 1.4143-.3905.3905-1.0237.3905-1.4142 0l-1.138-1.138C16.6874 21.6654 14.4749 23 12 23c-2.475 0-4.6874-1.3346-6.1549-3.4309l-1.138 1.138c-.3905.3905-1.0237.3905-1.4142 0-.3905-.3905-.3905-1.0237 0-1.4142l1.5481-1.5481c-.3587-.8515-.6129-1.776-.7425-2.7496A1.012 1.012 0 0 1 4 15H2c-.5523 0-1-.4477-1-1s.4477-1 1-1h2.0109c.0585-1.3406.3511-2.6077.8301-3.7448zm9.0166-4.9978C13.5628 3.5205 12.8422 3 12 3c-.8422 0-1.5628.5205-1.8576 1.2574A6.8207 6.8207 0 0 1 12 4c.6395 0 1.2615.0891 1.8576.2574z"/></svg>
